TH1/tut4_xyplot.svg

<svg xmlns="http://www.w3.org/2000/svg" viewBox="0 0 1200 800" preserveAspectRatio="none" width="1200" height="800">
 <path d="M0,0H1200V800H0Z" style="fill: white;"></path>
 <g>
  <g transform="translate(120,80)">
   <path d="M0,0H960V640H0Z" style="fill: white; stroke: white; stroke-width: 1;"></path>
   <svg x="0" y="0" overflow="hidden" width="960" height="640" viewBox="0 0 960 640">
    <g>
     <path d="M613.33,616.3C612.15,611.31,512.28,96.08,480,53.33S13.33,231.11,80,231.11S746.67,231.11,880,231.11" style="stroke: #ff0000; stroke-width: 1; fill: none;"></path>
     <path d="M609,612l8,8m0,-8l-8,8m0,-4h8m-4,-4v8M476,49l8,8m0,-8l-8,8m0,-4h8m-4,-4v8M76,227l8,8m0,-8l-8,8m0,-4h8m-4,-4v8M876,227l8,8m0,-8l-8,8m0,-4h8m-4,-4v8" style="stroke: black; fill: none;"></path>
    </g>
   </svg>
   <g>
    <g transform="translate(0,640)">
     <path d="M0,0h960M13,0v0m34,0v0m33,0v0m33,0v0m34,0v0m33,0v0m33,0v0m34,0v0m33,0v0m33,0v0m34,0v0m33,0v0m33,0v0m34,0v0m33,0v0m33,0v0m34,0v0m33,0v0m33,0v0m34,0v0m33,0v0m33,0v0m34,0v0m33,0v0m33,0v0m34,0v0m33,0v0m33,0v0m34,0v0" style="stroke: white; stroke-width: 1;"></path>
    </g>
    <g>
     <path d="M0,0v640M0,631h0m0,-15h0m0,-15h0m0,-14h0m0,-15h0m0,-15h0m0,-15h0m0,-15h0m0,-14h0m0,-15h0m0,-15h0m0,-15h0m0,-15h0m0,-14h0m0,-15h0m0,-15h0m0,-15h0m0,-15h0m0,-15h0m0,-14h0m0,-15h0m0,-15h0m0,-15h0m0,-15h0m0,-14h0m0,-15h0m0,-15h0m0,-15h0m0,-15h0m0,-15h0m0,-14h0m0,-15h0m0,-15h0m0,-15h0m0,-15h0m0,-14h0m0,-15h0m0,-15h0m0,-15h0m0,-15h0m0,-14h0m0,-15h0m0,-15h0" style="stroke: white; stroke-width: 1;"></path>
    </g>
   </g>
   <g>
    <g font-family="Arial" font-size="17" space="preserve" font-weight="bold">
     <text fill="black" text-anchor="end" transform="translate(647) rotate(-90)">
      Y axis
     </text>
    </g>
    <g font-family="Arial" font-size="17" space="preserve" font-weight="bold">
     <text fill="black" text-anchor="end" transform="translate(960,379)">
      X axis
     </text>
    </g>
   </g>
  </g>
  <g transform="translate(517,4)" font-family="Arial" font-size="39" space="preserve">
   <text fill="black" text-anchor="middle" dy=".4em" transform="translate(84,25)">
    XY plot
   </text>
  </g>
  <g transform="translate(800,80)">
   <path d="M0,0v640M0,640h-33m33,-107h-33m33,-106h-33m33,-107h-33m33,-107h-33m33,-106h-33m33,-107h-33" style="stroke: black; stroke-width: 1;"></path>
   <g font-family="Arial" font-size="32" space="preserve" font-weight="bold" fill="black" text-anchor="start">
    <text dy=".4em" transform="translate(4,640)">
     -1080
    </text>
    <text dy=".4em" transform="translate(4,533)">
     -720
    </text>
    <text dy=".4em" transform="translate(4,427)">
     -360
    </text>
    <text dy=".4em" transform="translate(4,213)">
     360
    </text>
    <text dy=".4em" transform="translate(4,107)">
     720
    </text>
    <text dy=".4em" transform="translate(4)">
     1080
    </text>
   </g>
  </g>
  <g transform="translate(120,400)">
   <path d="M0,0h960M13,-17v17m34,-9v9m33,-9v9m33,-9v9m34,-17v17m33,-9v9m33,-9v9m34,-9v9m33,-17v17m33,-9v9m34,-9v9m33,-9v9m33,-17v17m34,-9v9m33,-9v9m33,-9v9m34,-17v17m33,-9v9m33,-9v9m34,-9v9m33,-17v17m33,-9v9m34,-9v9m33,-9v9m33,-17v17m34,-9v9m33,-9v9m33,-9v9m34,-17v17" style="stroke: black; stroke-width: 1;"></path>
   <g font-family="Arial" font-size="32" space="preserve" font-weight="bold" fill="black" text-anchor="middle">
    <text dy=".8em" transform="translate(13,6)">
     -10
    </text>
    <text dy=".8em" transform="translate(147,6)">
     -8
    </text>
    <text dy=".8em" transform="translate(280,6)">
     -6
    </text>
    <text dy=".8em" transform="translate(413,6)">
     -4
    </text>
    <text dy=".8em" transform="translate(547,6)">
     -2
    </text>
    <text dy=".8em" transform="translate(680,6)">
     0
    </text>
    <text dy=".8em" transform="translate(813,6)">
     2
    </text>
    <text dy=".8em" transform="translate(947,6)">
     4
    </text>
   </g>
  </g>
 </g>
</svg>

<svg xmlns="http://www.w3.org/2000/svg" viewBox="0 0 1200 800" preserveAspectRatio="none" width="1200" height="800">
 <path d="M0,0H1200V800H0Z" style="fill: white;"></path>
 <g>
  <g transform="translate(120,80)">
   <path d="M0,0H960V640H0Z" style="fill: white; stroke: white; stroke-width: 1;"></path>
   <svg x="0" y="0" overflow="hidden" width="960" height="640" viewBox="0 0 960 640">
    <g>
     <path d="M613.33,616.3C612.15,611.31,512.28,96.08,480,53.33S13.33,231.11,80,231.11S746.67,231.11,880,231.11" style="stroke: #ff0000; stroke-width: 1; fill: none;"></path>
     <path d="M609,612l8,8m0,-8l-8,8m0,-4h8m-4,-4v8M476,49l8,8m0,-8l-8,8m0,-4h8m-4,-4v8M76,227l8,8m0,-8l-8,8m0,-4h8m-4,-4v8M876,227l8,8m0,-8l-8,8m0,-4h8m-4,-4v8" style="stroke: black; fill: none;"></path>
    </g>
   </svg>
   <g>
    <g transform="translate(0,640)">
     <path d="M0,0h960M13,0V0M47,0V0M80,0V0M113,0V0M147,0V0M180,0V0M213,0V0M247,0V0M280,0V0M313,0V0M347,0V0M380,0V0M413,0V0M447,0V0M480,0V0M513,0V0M547,0V0M580,0V0M613,0V0M647,0V0M680,0V0M713,0V0M747,0V0M780,0V0M813,0V0M847,0V0M880,0V0M913,0V0M947,0V0" style="stroke: white; stroke-width: 1;"></path>
    </g>
    <g>
     <path d="M0,0v640M0,631H0M0,616H0M0,601H0M0,587H0M0,572H0M0,557H0M0,542H0M0,527H0M0,513H0M0,498H0M0,483H0M0,468H0M0,453H0M0,439H0M0,424H0M0,409H0M0,394H0M0,379H0M0,364H0M0,350H0M0,335H0M0,320H0M0,305H0M0,290H0M0,276H0M0,261H0M0,246H0M0,231H0M0,216H0M0,201H0M0,187H0M0,172H0M0,157H0M0,142H0M0,127H0M0,113H0M0,98H0M0,83H0M0,68H0M0,53H0M0,39H0M0,24H0M0,9H0" style="stroke: white; stroke-width: 1;"></path>
    </g>
   </g>
   <g>
    <g font-family="Arial" font-size="17" space="preserve" font-weight="bold">
     <text fill="black" text-anchor="end" transform="translate(647) rotate(-90)">
      Y axis
     </text>
    </g>
    <g font-family="Arial" font-size="17" space="preserve" font-weight="bold">
     <text fill="black" text-anchor="end" transform="translate(960,379)">
      X axis
     </text>
    </g>
   </g>
  </g>
  <g transform="translate(517,4)" font-family="Arial" font-size="39" space="preserve">
   <text fill="black" text-anchor="middle" dy=".4em" transform="translate(84,25)">
    XY plot
   </text>
  </g>
  <g transform="translate(800,80)">
   <path d="M0,0v640M0,640H-33M0,533H-33M0,427H-33M0,320H-33M0,213H-33M0,107H-33M0,0H-33" style="stroke: black; stroke-width: 1;"></path>
   <g font-family="Arial" font-size="32" space="preserve" font-weight="bold" fill="black" text-anchor="start">
    <text dy=".4em" transform="translate(4,640)">
     -1080
    </text>
    <text dy=".4em" transform="translate(4,533)">
     -720
    </text>
    <text dy=".4em" transform="translate(4,427)">
     -360
    </text>
    <text dy=".4em" transform="translate(4,213)">
     360
    </text>
    <text dy=".4em" transform="translate(4,107)">
     720
    </text>
    <text dy=".4em" transform="translate(4)">
     1080
    </text>
   </g>
  </g>
  <g transform="translate(120,400)">
   <path d="M0,0h960M13,-17V0M47,-9V0M80,-9V0M113,-9V0M147,-17V0M180,-9V0M213,-9V0M247,-9V0M280,-17V0M313,-9V0M347,-9V0M380,-9V0M413,-17V0M447,-9V0M480,-9V0M513,-9V0M547,-17V0M580,-9V0M613,-9V0M647,-9V0M680,-17V0M713,-9V0M747,-9V0M780,-9V0M813,-17V0M847,-9V0M880,-9V0M913,-9V0M947,-17V0" style="stroke: black; stroke-width: 1;"></path>
   <g font-family="Arial" font-size="32" space="preserve" font-weight="bold" fill="black" text-anchor="middle">
    <text dy=".8em" transform="translate(13,6)">
     -10
    </text>
    <text dy=".8em" transform="translate(147,6)">
     -8
    </text>
    <text dy=".8em" transform="translate(280,6)">
     -6
    </text>
    <text dy=".8em" transform="translate(413,6)">
     -4
    </text>
    <text dy=".8em" transform="translate(547,6)">
     -2
    </text>
    <text dy=".8em" transform="translate(680,6)">
     0
    </text>
    <text dy=".8em" transform="translate(813,6)">
     2
    </text>
    <text dy=".8em" transform="translate(947,6)">
     4
    </text>
   </g>
  </g>
 </g>
</svg>
